src/lib/packages/icons/src/assets/filled/sim-card-2.svg

<svg width="24" height="24" viewBox="0 0 24 24" fill="none" xmlns="http://www.w3.org/2000/svg">
<path d="M18.561 7.56104L14.4399 3.43994C14.1589 3.15894 13.7769 3.00098 13.3789 3.00098H8C6 3.00098 5 4.00098 5 6.00098V18.001C5 20.001 6 21.001 8 21.001H16C18 21.001 19 20.001 19 18.001V8.62207C19 8.22307 18.842 7.84204 18.561 7.56104ZM14.1431 16.75H10.4431C10.1411 16.75 9.86993 16.569 9.75293 16.292C9.63493 16.014 9.69503 15.6931 9.90503 15.4771C9.90503 15.4771 10.9901 14.3621 12.5901 12.7571C13.1571 12.1881 13.2919 11.4961 12.9109 11.1111C12.5489 10.7461 12.164 10.7191 11.907 10.7661C11.558 10.8251 11.2571 11.0399 11.1211 11.3279C10.9431 11.7009 10.5011 11.8621 10.1211 11.6831C9.74709 11.5051 9.58811 11.0581 9.76611 10.6831C10.1151 9.95111 10.821 9.42911 11.656 9.28711C12.508 9.14211 13.3501 9.42293 13.9761 10.0549C14.9511 11.0379 14.8121 12.6549 13.6531 13.8169C13.1121 14.3589 12.631 14.845 12.231 15.251H14.144C14.558 15.251 14.894 15.587 14.894 16.001C14.894 16.415 14.5571 16.75 14.1431 16.75Z" fill="currentColor"/>
</svg>

<svg xmlns="http://www.w3.org/2000/svg" width="24" height="24" fill="none"><path fill="currentColor" d="M18.561 7.561 14.44 3.44A1.5 1.5 0 0 0 13.379 3H8C6 3 5 4 5 6v12c0 2 1 3 3 3h8c2 0 3-1 3-3V8.622a1.5 1.5 0 0 0-.439-1.061Zm-4.418 9.189h-3.7a.749.749 0 0 1-.538-1.273s1.085-1.115 2.685-2.72c.567-.569.702-1.26.32-1.646-.361-.365-.746-.392-1.003-.345-.349.06-.65.274-.786.562a.75.75 0 1 1-1.355-.645c.35-.732 1.055-1.254 1.89-1.396.852-.145 1.694.136 2.32.768.975.983.836 2.6-.323 3.762-.54.542-1.022 1.028-1.422 1.434h1.913a.75.75 0 1 1 0 1.499Z"/></svg>
